X:1
T:Title
%%score { ( 1 4 ) | ( 2 3 ) }
L:1/8
Q:1/4=95
M:6/8
K:Bb
V:1 treble nm="Grand Piano"
V:4 treble 
V:2 bass 
V:3 bass 
V:1
 [B,D][CE][G,_D=E] [F,=DF]2 [DB] | [EA]3 [Ec]3 | z Ac d2 e | d-[Bd-][Ad-] [Gd-][Fd]E | %4
w: W.~H.~Cutland * * * *||||
 DE[_D=E] [=DF]2 [DB] | [FA]3 [Fc]3 | .[=Ec]2 [B,EG] EA[EG] | F6 | AGF E2 G | [EG]3 [DF]3 | %10
w: ||||||
 dc[B,FB] =E-[EA]B | c6 | [B,D][CE][G,_D=E] .[F,=DF]2 [B,DB] | [B,EG]3 [Ge]3 | dcG A2 F | [DB]6 | %16
w: ||||||
[M:4/4] [Fd]2 [FB]2 F2 D2 | F>G A>B [Ac]4 | [Ae]2 c2 A2 F2 | G>[FA] [FB]>[Fc] [Fd]4 | %20
w: ||||
 [^Fd]>[DGd] [DAd]>[DFc] [DGB]2 z z/ B,/ | z4 c4 | [Ff]>[Ff] [Ff][Ge] dcBG | F2 c2 [DB]4 |] %24
w: ||||
V:2
 z A,B,, B,,2 [B,,F,] | [C,F,]3 [A,,F,]3 | A,C[F,A,F] [F,B,F]2 [F,CF] | [B,,B,]6 | %4
 B,[A,C][B,,G,] [B,,F,]2 [B,,F,] | [C,F,]3 [C,A,]3 | z[K:treble] B[K:bass]C, [C,B,C]2 [C,B,] | %7
 [F,A,]6 | .C3 z3 | [B,,B,]3 [B,,B,]3 | .B,3 .G,3 | [F,F]6 | z A,B,, z B,B,, | E,3 [C,B,]3 | %14
 [F,F]-[F,A,F][F,B,=E] [F,C_E]2 [F,A,E] | [B,,B,]6 |[M:4/4] [B,,B,]2 [D,B,]2 [F,B,D]2 B,2 | %17
 [F,A,]>[F,B,F] [F,CF]>[F,D] [F,E]4 | [F,C]2[K:treble] [A,EF]2 [CEF]2[K:bass] [A,E]2 | %19
 [F,B,F]>[E,C] [D,B,]>[C,A,] [B,,B,]4 | [D,A,]>=E, ^F,>D, G,>=F, [_E,E]>D, | z4 [A,F]4 | %22
 [D,B,]>[C,A,] [D,B,][E,B,] [F,B,F][^F,A,E][G,B,D][=E,B,_D] | [F,B,D]2 [F,A,E]2 [B,,B,]4 |] %24
V:3
 .B,,3 z3 | x6 | .F,3 z3 | x6 | .B,,3 z3 | x6 | .[C,G,]3[K:treble][K:bass] z3 | x6 | %8
 [F,E]-[F,B,E][F,A,E] [F,A,]2 [F,A,E] | x6 | B,,C,D, z C[G,B,=E] | B,3 z3 | .B,,3 .B,,3 | x6 | %14
 .B,3 z3 | x6 |[M:4/4] x8 | x8 | x2[K:treble] x4[K:bass] x2 | x8 | x8 | %21
 [C,A,]>[C,B,] [C,C]>[C,B,] F,2 z2 | x8 | x8 |] %24
V:4
 x6 | x6 | .F3 z3 | .F3 z3 | x6 | x6 | x6 | x6 | x6 | x6 | .F3 .[B,B]3 | z3 A,3 | x6 | x6 | x6 | %15
 x6 |[M:4/4] x8 | x8 | x8 | x8 | z4 z2 G2 | [Fe]>[Fe] [Fe]>[Fd] z2 E,2 | x8 | x8 |] %24

